X:1229
T:The Ewe Reel
M:C|
L:1/8
R:Reel
B:O'Neill's 1229
N:Collected by Kennedy
Z:Transcribed by Trish O'Neil
K:G
DGAGF DGAGF|F2AF cFAF|DGAGF DGGg|1 fdcA BGAF :|2 fdcA BGG2||
g2bg dgbg|f2af dfaf|g2bg dgbg|agfag2ga|
bgaf gdde|fefd cAGF|dggf 3gab ag|fdcA BGAF|]
